packages/icons/svg/Media_Print_24px.svg

<svg xmlns="http://www.w3.org/2000/svg" viewBox="0 0 24 24"><path d="M21 5h-3V3a1 1 0 00-1-1H7a1 1 0 00-1 1v2H3a1 1 0 00-1 1v12a1 1 0 001 1h3v2a1 1 0 001 1h10a1 1 0 001-1v-2h3a1 1 0 001-1V6a1 1 0 00-1-1zM8 4h8v1H8zm8 16H8v-6h8zm4-3h-2v-3a1 1 0 000-2H6a1 1 0 000 2v3H4V7h16z"/><path d="M16 8.5a.5.5 0 000 1h2a.5.5 0 000-1zM10 16.5h4a.5.5 0 000-1h-4a.5.5 0 000 1zM10 18.5h4a.5.5 0 000-1h-4a.5.5 0 000 1z"/></svg>

<svg xmlns="http://www.w3.org/2000/svg" viewBox="0 0 24 24"><defs></defs><g id="Icon"><path  d="M21,5H18V3a1,1,0,0,0-1-1H7A1,1,0,0,0,6,3V5H3A1,1,0,0,0,2,6V18a1,1,0,0,0,1,1H6v2a1,1,0,0,0,1,1H17a1,1,0,0,0,1-1V19h3a1,1,0,0,0,1-1V6A1,1,0,0,0,21,5ZM8,4h8V5H8Zm8,16H8V14h8Zm4-3H18V14a1,1,0,0,0,0-2H6a1,1,0,0,0,0,2v3H4V7H20Z"/><path  d="M16,8.5a.5.5,0,0,0,0,1h2a.5.5,0,0,0,0-1Z"/><path  d="M10,16.5h4a.5.5,0,0,0,0-1H10a.5.5,0,0,0,0,1Z"/><path  d="M10,18.5h4a.5.5,0,0,0,0-1H10a.5.5,0,0,0,0,1Z"/></g></svg>
